icons/svg/tourist/rwn_ref.svg

<?xml version="1.0" encoding="UTF-8" standalone="no"?>
<!-- Created with Inkscape (http://www.inkscape.org/) -->

<svg
   xmlns:dc="http://purl.org/dc/elements/1.1/"
   xmlns:cc="http://creativecommons.org/ns#"
   xmlns:rdf="http://www.w3.org/1999/02/22-rdf-syntax-ns#"
   xmlns:svg="http://www.w3.org/2000/svg"
   xmlns="http://www.w3.org/2000/svg"
   xmlns:sodipodi="http://sodipodi.sourceforge.net/DTD/sodipodi-0.dtd"
   xmlns:inkscape="http://www.inkscape.org/namespaces/inkscape"
   version="1.0"
   width="580"
   height="580"
   id="svg2"
   sodipodi:version="0.32"
   inkscape:version="0.91 r"
   sodipodi:docname="rcn_ref.svg"
   inkscape:output_extension="org.inkscape.output.svg.inkscape">
  <metadata
     id="metadata2975">
    <rdf:RDF>
      <cc:Work
         rdf:about="">
        <dc:format>image/svg+xml</dc:format>
        <dc:type
           rdf:resource="http://purl.org/dc/dcmitype/StillImage" />
        <cc:license
           rdf:resource="http://web.resource.org/cc/PublicDomain" />
        <dc:language>en</dc:language>
        <dc:title />
      </cc:Work>
    </rdf:RDF>
  </metadata>
  <sodipodi:namedview
     inkscape:window-height="1004"
     inkscape:window-width="1920"
     inkscape:pageshadow="2"
     inkscape:pageopacity="0.0"
     guidetolerance="10.0"
     gridtolerance="10.0"
     objecttolerance="10.0"
     borderopacity="1.0"
     bordercolor="#666666"
     pagecolor="#ffffff"
     id="base"
     inkscape:zoom="0.5"
     inkscape:cx="353.78412"
     inkscape:cy="330.48735"
     inkscape:window-x="1680"
     inkscape:window-y="0"
     inkscape:current-layer="svg2"
     showgrid="false"
     inkscape:window-maximized="1"
     inkscape:snap-global="false"
     inkscape:snap-intersection-paths="true"
     inkscape:object-paths="true"
     inkscape:object-nodes="true"
     inkscape:snap-smooth-nodes="true" />
  <defs
     id="defs4">
    <inkscape:perspective
       sodipodi:type="inkscape:persp3d"
       inkscape:vp_x="0 : 290 : 1"
       inkscape:vp_y="0 : 1000 : 0"
       inkscape:vp_z="580 : 290 : 1"
       inkscape:persp3d-origin="290 : 193.33333 : 1"
       id="perspective2441" />
    <inkscape:perspective
       id="perspective3452"
       inkscape:persp3d-origin="30 : 20 : 1"
       inkscape:vp_z="60 : 30 : 1"
       inkscape:vp_y="0 : 1000 : 0"
       inkscape:vp_x="0 : 30 : 1"
       sodipodi:type="inkscape:persp3d" />
    <symbol
       viewBox="244.5 110 489 219.9"
       id="symbol-university">
      <path
         id="path4460"
         d="M79,43l57,119c0,0,21-96,104-96s124,106,124,106l43-133l82-17L0,17L79,43z" />
      <path
         id="path4462"
         d="M94,176l-21,39"
         stroke-width="20"
         stroke="#000000"
         fill="none" />
      <path
         id="path4464"
         d="M300,19c0,10.5-22.6,19-50.5,19S199,29.5,199,19s22.6-19,50.5-19S300,8.5,300,19z" />
      <path
         id="path4466"
         d="M112,216l-16-38L64,88c0,0-9-8-4-35s16-24,16-24"
         stroke-width="20"
         stroke="#000000"
         ill="none" />
    </symbol>
    <inkscape:perspective
       id="perspective4471"
       inkscape:persp3d-origin="372.04724 : 350.78739 : 1"
       inkscape:vp_z="744.09448 : 526.18109 : 1"
       inkscape:vp_y="0 : 1000 : 0"
       inkscape:vp_x="0 : 526.18109 : 1"
       sodipodi:type="inkscape:persp3d" />
    <inkscape:perspective
       id="perspective4668"
       inkscape:persp3d-origin="6 : 4 : 1"
       inkscape:vp_z="12 : 6 : 1"
       inkscape:vp_y="0 : 1000 : 0"
       inkscape:vp_x="0 : 6 : 1"
       sodipodi:type="inkscape:persp3d" />
  </defs>
  <g
     id="g1327">
    <path
       d="M 66.275,1.768 C 24.94,1.768 1.704,23.139 1.704,66.804 L 1.704,516.927 C 1.704,557.771 22.599,579.156 63.896,579.156 L 515.92,579.156 C 557.227,579.156 578.149,558.841 578.149,516.927 L 578.149,66.804 C 578.149,24.203 557.227,1.768 514.628,1.768 C 514.624,1.768 66.133,1.625 66.275,1.768 z "
       style="fill:#111;stroke:#eee;stroke-width:3.40799999"
       id="path1329" />
  </g>
  <path
     style="color:#000000;font-style:normal;font-variant:normal;font-weight:normal;font-stretch:normal;font-size:medium;line-height:normal;font-family:sans-serif;text-indent:0;text-align:start;text-decoration:none;text-decoration-line:none;text-decoration-style:solid;text-decoration-color:#000000;letter-spacing:normal;word-spacing:normal;text-transform:none;direction:ltr;block-progression:tb;writing-mode:lr-tb;baseline-shift:baseline;text-anchor:start;white-space:normal;clip-rule:nonzero;display:inline;overflow:visible;visibility:visible;opacity:1;isolation:auto;mix-blend-mode:normal;color-interpolation:sRGB;color-interpolation-filters:linearRGB;solid-color:#000000;solid-opacity:1;fill:#ffffff;fill-opacity:1;fill-rule:evenodd;stroke:none;stroke-width:30.84116745;stroke-linecap:round;stroke-linejoin:round;stroke-miterlimit:4;stroke-dasharray:none;stroke-dashoffset:0;stroke-opacity:1;color-rendering:auto;image-rendering:auto;shape-rendering:auto;text-rendering:auto;enable-background:accumulate"
     d="M 523.93555 39.185547 L 359.51562 39.625 C 352.68806 39.64414 346.68571 44.150274 344.76172 50.701172 L 315.85156 149.17383 C 314.94272 152.27249 315.02949 155.57827 316.09961 158.625 L 344.33008 239.02539 C 346.50369 245.21541 352.35549 249.35273 358.91602 249.33789 L 508.2793 248.99023 L 508.2793 534.38867 C 508.27884 537.61767 510.896 540.2357 514.125 540.23633 L 534.04102 540.23633 C 537.26849 540.23571 539.88502 537.62005 539.88672 534.39258 L 540.0293 236.38281 C 540.20727 235.43246 540.30585 234.45403 540.30078 233.45117 L 540.05273 184.56055 L 540.09766 92.429688 C 540.09819 91.570532 539.90863 90.756434 539.57617 90.021484 L 539.39648 54.527344 C 539.35228 46.026162 532.43682 39.164036 523.93555 39.185547 z M 358.73438 67.320312 L 443.83984 67.320312 C 462.545 67.320312 476.16655 69.759069 483.89258 74.638672 C 494.46505 81.551442 500.35938 91.92209 500.35938 104.12109 C 500.35937 117.33668 493.24608 128.51944 480.84375 134.82227 C 475.76083 137.26206 470.47501 138.68558 459.69922 140.71875 C 477.38778 146.61491 485.11236 155.76204 488.16211 174.06055 L 489.58594 181.78711 C 489.99257 184.63355 490.39648 186.66915 490.39648 187.48242 C 491.41307 193.98855 491.61798 195.41057 492.83789 197.03711 C 494.05778 198.86695 496.4979 200.08594 498.73438 200.08594 C 504.83387 200.08594 507.88262 193.58042 508.08594 180.77148 L 519.06641 180.77148 L 519.06641 183.21094 C 519.06641 204.76252 506.46213 217.16406 484.50391 217.16406 C 466.81536 217.16406 455.42903 208.8294 451.97266 192.9707 C 451.3627 189.71762 450.3449 181.17888 449.125 167.55664 C 448.31173 155.96759 447.49917 153.52708 444.24609 149.66406 C 440.58639 145.59773 434.89301 143.56445 426.15039 143.56445 L 414.76562 143.56445 L 414.76562 184.63477 C 414.76562 197.64704 414.76429 198.2561 416.1875 200.08594 C 418.01734 202.11911 422.49004 202.93164 433.0625 202.93164 L 438.34961 202.93164 L 438.34961 213.91211 L 357.02344 213.91211 L 357.02344 202.93164 L 360.07227 202.93164 C 370.64474 202.93164 374.91428 202.11911 376.74414 200.08594 C 378.16764 198.2561 378.16797 197.64704 378.16797 184.63477 L 378.16797 96.597656 C 378.16797 83.585384 378.16748 82.976335 376.74414 81.146484 C 374.91428 79.113317 370.64474 78.298828 360.07227 78.298828 L 357.02344 78.298828 L 357.02344 68.824219 A 105.59386 105.59386 0 0 1 358.73438 67.320312 z M 429.19922 78.298828 C 416.18696 78.298828 414.76562 79.723444 414.76562 91.3125 L 414.76562 132.38086 L 425.94727 132.38086 C 452.9884 132.38086 461.52734 125.87504 461.52734 105.13672 C 461.52734 86.634905 452.98855 78.298828 434.08008 78.298828 L 429.19922 78.298828 z "
     id="path3239" />
  <path
     d="m 179.51284,130.38357 c -19.00219,-0.35828 -34.61482,15.41466 -34.61482,34.65441 0,19.23973 15.61263,34.90919 34.61482,35.26748 19.00242,0.35827 33.92262,-14.7355 33.92262,-33.97523 0,-19.23975 -14.9202,-35.58838 -33.92262,-35.94666 z m -40.76013,83.65031 -31.84549,113.84686 c -3.23387,19.88751 -3.47989,34.42763 15.92287,49.34417 l 13.84574,10.73127 33.2304,31.43179 0,88.6141 c 0.0209,12.56496 10.08816,21.98631 22.49963,21.05601 12.41147,-0.93032 22.47878,-5.71325 22.49963,-18.28133 l 0,-104.45396 c -0.0825,-6.03165 -2.58066,-11.59011 -6.92287,-15.40394 l -34.61483,-32.71247 -9.69221,-11.73481 15.92286,-67.65407 29.76861,28.92193 c 6.46021,6.30366 16.43879,7.496 24.92287,2.9781 l 35.99949,-21.39057 0,227.76589 22.1533,-1.66054 0,-238.84253 6.9231,-3.98047 c 10.52816,-4.03461 17.07278,-15.14276 15.32647,-26.01349 -1.74632,-10.87071 -11.24723,-18.16517 -22.24957,-17.08242 l 0,-8.99976 -22.1533,1.66053 0,17.99976 -40.84571,23.83048 -37.38394,-36.65867 c -3.19615,-3.01427 -7.30621,-4.88209 -11.7691,-5.34851 -0.66494,-0.38349 -1.46974,-1.07065 -2.07734,-1.22917 l -39.46105,-6.73436 z m -29.76861,3.61625 c -12.960481,1.27871 -28.370639,5.07885 -42.922609,18.44793 -19.402531,17.82525 -32.073412,46.19776 -35.307045,67.7224 -3.233878,19.8875 11.523069,25.37844 27.691953,29.07759 16.168662,3.69939 30.688746,-3.99472 33.9224,-15.69621 4.850799,-15.09738 29.076621,-100.48577 29.076621,-100.48577 -3.6381,0.27269 -8.1413,0.51857 -12.46132,0.93406 z m -8.30753,155.69734 -6.923099,44.82596 0,0.69246 c -0.246892,0.47193 -0.477845,0.95115 -0.692468,1.4368 -0.796324,1.14785 -1.491661,2.35854 -2.07734,3.61703 l -32.537948,84.13013 c -4.593926,11.81612 0.984581,24.42149 12.458159,28.15087 11.473575,3.72939 22.035825,1.61328 26.620721,-10.20577 L 132.5216,437.42152 c 1.41556,-3.1385 2.12577,-6.50539 2.07736,-9.84792 0.0144,-0.46259 0.0144,-0.92446 0,-1.3849 l 4.15375,-12.77268 c -21.01946,-16.43245 -38.07637,-28.60874 -38.07637,-40.06853 z"
     id="circle3-5"
     style="color:#000000;display:inline;overflow:visible;visibility:visible;fill:#ffffff;fill-opacity:1;fill-rule:nonzero;stroke:none;marker:none;enable-background:accumulate"
     inkscape:connector-curvature="0"
     sodipodi:nodetypes="sssssccccccscccccccccccccscccccccccccscccccccccccsccccccc" />
</svg>

<svg width="580" height="580" viewBox="0 0 580 580" fill="none" xmlns="http://www.w3.org/2000/svg">
<g clip-path="url(#clip0)">
<path d="M66.2751 1.76815C24.9401 1.76815 1.7041 23.1391 1.7041 66.8041V516.927C1.7041 557.771 22.5991 579.156 63.8961 579.156H515.92C557.227 579.156 578.149 558.841 578.149 516.927V66.8041C578.149 24.2031 557.227 1.76815 514.628 1.76815C514.624 1.76815 66.1331 1.62515 66.2751 1.76815Z" fill="#111111" stroke="#EEEEEE" stroke-width="3.408"/>
<path fill-rule="evenodd" clip-rule="evenodd" d="M523.936 39.1856L359.516 39.6251C352.688 39.6442 346.686 44.1503 344.762 50.7012L315.852 149.174C314.943 152.273 315.03 155.578 316.1 158.625L344.33 239.025C346.504 245.215 352.356 249.353 358.916 249.338L508.28 248.99V534.389C508.279 537.618 510.896 540.236 514.125 540.236H534.041C537.269 540.236 539.885 537.62 539.887 534.393L540.03 236.383C540.208 235.433 540.306 234.454 540.301 233.451L540.053 184.561L540.098 92.4297C540.099 91.5706 539.909 90.7565 539.577 90.0215L539.397 54.5274C539.353 46.0262 532.437 39.1641 523.936 39.1856ZM358.735 67.3204H443.84C462.545 67.3204 476.167 69.7591 483.893 74.6387C494.465 81.5515 500.36 91.9221 500.36 104.121C500.36 117.337 493.246 128.519 480.844 134.822C475.761 137.262 470.475 138.686 459.7 140.719C477.388 146.615 485.113 155.762 488.162 174.061L489.586 181.787C489.993 184.634 490.397 186.669 490.397 187.482C491.413 193.989 491.618 195.411 492.838 197.037C494.058 198.867 496.498 200.086 498.735 200.086C504.834 200.086 507.883 193.58 508.086 180.772H519.067V183.211C519.067 204.763 506.462 217.164 484.504 217.164C466.816 217.164 455.429 208.829 451.973 192.971C451.363 189.718 450.345 181.179 449.125 167.557C448.312 155.968 447.5 153.527 444.246 149.664C440.587 145.598 434.893 143.565 426.151 143.565H414.766V184.635C414.766 197.647 414.765 198.256 416.188 200.086C418.018 202.119 422.49 202.932 433.063 202.932H438.35V213.912H357.024V202.932H360.073C370.645 202.932 374.915 202.119 376.744 200.086C378.168 198.256 378.168 197.647 378.168 184.635V96.5977C378.168 83.5854 378.168 82.9764 376.744 81.1465C374.915 79.1134 370.645 78.2989 360.073 78.2989H357.024V68.8243C357.589 68.3168 358.159 67.8155 358.735 67.3204V67.3204ZM429.2 78.2989C416.187 78.2989 414.766 79.7235 414.766 91.3125V132.381H425.948C452.989 132.381 461.528 125.875 461.528 105.137C461.528 86.635 452.989 78.2989 434.08 78.2989H429.2Z" fill="white"/>
<path d="M179.513 130.383C160.511 130.025 144.898 145.798 144.898 165.038C144.898 184.278 160.511 199.947 179.513 200.305C198.515 200.664 213.436 185.57 213.436 166.33C213.436 147.09 198.515 130.742 179.513 130.383ZM138.753 214.034L106.907 327.881C103.673 347.768 103.427 362.308 122.83 377.225L136.676 387.956L169.906 419.388V508.002C169.927 520.567 179.994 529.988 192.406 529.058C204.817 528.128 214.885 523.345 214.906 510.777V406.323C214.823 400.291 212.325 394.733 207.983 390.919L173.368 358.206L163.676 346.471L179.598 278.817L209.367 307.739C215.827 314.043 225.806 315.235 234.29 310.717L270.289 289.327V517.093L292.443 515.432V276.59L299.366 272.609C309.894 268.575 316.439 257.466 314.692 246.596C312.946 235.725 303.445 228.431 292.443 229.513V220.513L270.289 222.174V240.174L229.444 264.004L192.06 227.346C188.864 224.331 184.754 222.463 180.291 221.997C179.626 221.614 178.821 220.926 178.213 220.768L138.752 214.034L138.753 214.034ZM108.984 217.65C96.0237 218.929 80.6135 222.729 66.0615 236.098C46.659 253.923 33.9881 282.296 30.7545 303.82C27.5206 323.708 42.2776 329.199 58.4464 332.898C74.6151 336.597 89.1352 328.903 92.3688 317.202C97.2196 302.104 121.445 216.716 121.445 216.716C117.807 216.989 113.304 217.234 108.984 217.65V217.65ZM100.677 373.347L93.7535 418.173V418.866C93.5066 419.338 93.2757 419.817 93.061 420.303C92.2647 421.45 91.5694 422.661 90.9837 423.92L58.4458 508.05C53.8518 519.866 59.4303 532.471 70.9039 536.201C82.3775 539.93 92.9397 537.814 97.5246 525.995L132.522 437.421C133.937 434.283 134.647 430.916 134.599 427.573C134.613 427.111 134.613 426.649 134.599 426.189L138.753 413.416C117.733 396.983 100.676 384.807 100.676 373.347L100.677 373.347Z" fill="white"/>
</g>
<defs>
<clipPath id="clip0">
<path d="M0 0H580V580H0V0Z" fill="white"/>
</clipPath>
</defs>
</svg>
